!!!COM: Music21
!!!OTL: Marcha procesional
!!!OMV: pezas_marchas_marcha-procesional-14_marcha-procesional-partitura.musicxml
**kern
*I"Bagpipes
*I'Bag
*clefG^2
*k[]
*M2/4
=1
!LO:TX:a:t=Moderato
*MM91
!LO:TX:a:t=[quarter]=91
4.r
16eeLL
16ffJJ
=||
16ggLL
16ee
16cc
16eeJJ
16ggLL
16ee
16gg
16eeJJ
=
8ffL
8ddJ
8bL
16ddL
16eeJJ
=
16ffLL
16dd
16b
16ddJJ
16ffLL
16dd
16ff
16aaJJ
=
8ggL
8eeJ
8ccL
16eeL
16ffJJ
=
16ggLL
16ee
16cc
16eeJJ
16ggLL
16ee
16gg
16eeJJ
!!linebreak:original
=
8ffL
8ddJ
8bL
16ffL
16ggJJ
=
16bbLL
16aa
16gg
16ffJJ
16eeLL
16gg
16ff
16ddJJ
=
8ccL
8ggJ
8cccL
16eeL
16ffJJ
=||
16ggLL
16ee
16cc
16eeJJ
16ggLL
16ee
16gg
16eeJJ
=
8ffL
8ddJ
8bL
16ddL
16eeJJ
=
16ffLL
16dd
16b
16ddJJ
16ffLL
16dd
16ff
16aaJJ
!!linebreak:original
=
8ggL
8eeJ
8ccL
16eeL
16ffJJ
=
16ggLL
16ee
16cc
16eeJJ
16ggLL
16ee
16gg
16eeJJ
!!linebreak:original
=
8ffL
8ddJ
8bL
16ffL
16ggJJ
=
16bbLL
16aa
16gg
16ffJJ
16eeLL
16gg
16ff
16ddJJ
=
8ccL
8eeJ
8ccL
16ggL
16aa-XJJ
=||
*k[b-e-a-]
*E-:
16ggLL
16ee-
16cc
16ee-JJ
16ggLL
16ee-
16gg
16aa-JJ
!!linebreak:original
=
8ggL
8ffJ
8ddL
16ddL
16ee-JJ
=
16ffLL
16dd
16bn
16ddJJ
16ffLL
16dd
16ff
16aa-JJ
=
8ggL
8ee-J
8ccL
16ee-L
16ffJJ
=
16ggLL
16ee-
16cc
16ee-JJ
16ggLL
16ee-
16ccc
16ggJJ
=
8bb-L
8aa-J
16ffLL
16dd
16ff
16aa-JJ
!!linebreak:original
=
16aa-TLL
16gg
16ee-
16ccJJ
16ggLL
16ff
16dd
16bnJJ
=
8ccL
16ee-L
16ggJJ
8cccL
16ggL
16aa-JJ
=||
16ggLL
16ee-
16cc
16ee-JJ
16ggLL
16ee-
16gg
16aa-JJ
!!linebreak:original
=
8ggL
8ffJ
8ddL
16ddL
16ee-JJ
=
16ffLL
16dd
16bn
16ddJJ
16ffLL
16dd
16ff
16aa-JJ
=
8ggL
8ee-J
8ccL
16ee-L
16ffJJ
=
16ggLL
16ee-
16cc
16ee-JJ
16ggLL
16ee-
16ccc
16ggJJ
=
8bb-L
8aa-J
16ffLL
16dd
16ff
16aa-JJ
!!linebreak:original
=
16aa-TLL
16gg
16ee-
16ccJJ
16ggLL
16ff
16dd
16bnJJ
=
*k[]
*C:
8cc
48ggLLL
48aa
48gg
48ff
48ee
48ddJJJ
8ccL
16ggL
16aaJJ
=||
16ggLL
16ee
16cc
16eeJJ
16ggLL
16ee
16gg
16eeJJ
=
8ffL
8ddJ
8bL
16ddL
16eeJJ
!!linebreak:original
=
16ffLL
16dd
16b
16ddJJ
16ffLL
16dd
16ff
16aaJJ
=
8ggL
8eeJ
8ccL
16eeL
16ffJJ
=
16ggLL
16ee
16cc
16eeJJ
16ggLL
16ee
16ccc
16bbJJ
=
8aaL
8ffJ
8ddL
16ffL
16aaJJ
=
16ggLL
16ee
16ff
16ddJJ
16eeLL
16cc
16dd
16bJJ
=
4cc
4r
==
*-
